images/svg/logo-footer.svg

<svg width="56" height="56" viewBox="0 0 56 56" fill="none" xmlns="http://www.w3.org/2000/svg">
<g clip-path="url(#clip0_0_143)">
<path d="M28.073 25.3306C27.223 25.5977 26.3387 25.7399 25.4478 25.7528C24.0656 25.8018 22.6982 26.0551 21.3901 26.5043C18.5061 27.3908 18.7368 29.33 19.1613 30.7113C19.1737 30.7515 20.6391 34.6594 26.029 33.0027C28.7593 32.1634 29.2626 29.487 29.7942 26.6505C29.9458 25.8432 30.0997 25.0263 30.3093 24.2443C29.6395 24.745 28.8806 25.1136 28.073 25.3306Z" fill="white"/>
<path d="M33.3901 21.939C32.2037 22.9887 31.8322 24.9167 31.448 26.9639C31.3568 27.4462 31.2627 27.9392 31.1563 28.4324C31.8941 28.4564 32.6303 28.3493 33.3307 28.1162C36.1158 27.2601 36.4571 23.9652 36.1166 22.8575C35.8909 22.123 35.6302 21.298 33.3901 21.939Z" fill="white"/>
<path d="M19.2466 54.2307L19.2506 54.2295C19.6804 53.703 20.3845 53.4865 21.0357 53.6808L22.3298 54.0666C22.6555 54.1639 23.0078 54.0556 23.2227 53.7921L24.0774 52.7458C24.5071 52.2193 25.2113 52.0029 25.8625 52.1971L27.1565 52.583C27.4823 52.6802 27.8346 52.5719 28.0495 52.3085L28.9042 51.2621C29.3339 50.7357 30.038 50.5192 30.6893 50.7134L31.9833 51.0993C32.3091 51.1966 32.6614 51.0883 32.8763 50.8248L33.731 49.7785C34.1607 49.252 34.8648 49.0355 35.5161 49.2298L36.8101 49.6156C37.1359 49.7129 37.4881 49.6046 37.703 49.3411L38.5577 48.2948C38.9874 47.7683 39.6916 47.5519 40.3428 47.7461L41.6369 48.132C41.9626 48.2292 42.3149 48.1209 42.5298 47.8575L43.3845 46.8111C43.8135 46.2837 44.5183 46.067 45.1696 46.2624L46.4636 46.6483C46.7894 46.7456 47.1417 46.6373 47.3566 46.3738L48.2113 45.3275C48.6409 44.8014 49.3446 44.5851 49.9956 44.779C50.166 44.8317 50.3516 44.7855 50.4774 44.6591C50.6032 44.5326 50.6485 44.3467 50.5949 44.1766L50.0341 42.3521L17.8556 52.2432L18.4164 54.0677C18.4682 54.2369 18.609 54.3639 18.7827 54.398C18.9563 54.4321 19.1347 54.3678 19.2466 54.2307Z" fill="white"/>
<path d="M8.81735 9.4229L7.80972 10.6562C7.38002 11.1827 6.67586 11.3992 6.02462 11.205C5.85479 11.1528 5.67004 11.1988 5.54447 11.3245C5.41891 11.4502 5.37308 11.6349 5.42536 11.8047L5.98619 13.6293L38.1646 3.73815L37.6038 1.91363C37.552 1.74441 37.4112 1.61746 37.2376 1.58336C37.0639 1.54926 36.8856 1.61354 36.7736 1.7506C36.3439 2.27709 35.6397 2.49354 34.9885 2.29931L33.4596 1.84829C33.2741 1.79259 33.0734 1.8543 32.9512 2.00457L31.9436 3.23791C31.5139 3.76441 30.8097 3.98085 30.1585 3.78662L28.6328 3.33196C28.4474 3.27625 28.2466 3.33797 28.1244 3.48824L27.1168 4.72158C26.6871 5.24807 25.9829 5.46452 25.3317 5.27029L23.8061 4.81562C23.6206 4.75992 23.4198 4.82163 23.2977 4.9719L22.29 6.20525C21.8603 6.73174 21.1562 6.94818 20.5049 6.75395L18.9793 6.29929C18.7938 6.24358 18.5931 6.3053 18.4709 6.45557L17.4633 7.68891C17.0335 8.21541 16.3294 8.43185 15.6782 8.23762L14.1525 7.78296C13.9671 7.72725 13.7663 7.78896 13.6441 7.93923L12.6365 9.17258C12.2068 9.69907 11.5026 9.91552 10.8514 9.72129L9.32577 9.26662C9.14029 9.21091 8.93952 9.27263 8.81735 9.4229Z" fill="white"/>
<path d="M24.7949 17.5324C16.8066 19.9879 11.7562 26.6734 13.5292 32.4414C15.3022 38.2094 23.2358 40.9039 31.2241 38.4484C39.2124 35.9929 44.2628 29.3074 42.4898 23.5394C40.7168 17.7714 32.7832 15.0769 24.7949 17.5324ZM33.8254 29.7246C32.8265 30.0574 31.7692 30.1785 30.7209 30.0801C30.0855 32.0804 28.9762 33.8565 26.5226 34.6107C20.6098 36.4282 18.0015 32.6691 17.5515 31.205C16.6094 28.14 17.8296 25.8367 20.8946 24.8946C22.3384 24.4038 23.8463 24.1271 25.3703 24.0735C26.1191 24.0612 26.8623 23.9424 27.5776 23.7208C28.5887 23.4483 29.5023 22.8959 30.2133 22.127C30.9095 21.3693 31.7631 20.7734 32.7142 20.3809C33.7118 20.0743 36.7365 19.1446 37.7257 22.3624C38.3463 24.3816 37.5742 28.5723 33.8254 29.7246Z" fill="white"/>
<path d="M38.8363 5.29215L6.30391 15.2921C6.6758 21.5217 7.75052 27.6894 9.50761 33.6776C11.4162 39.6194 13.9914 45.326 17.1841 50.6884L49.7165 40.6885C49.3446 34.4588 48.2699 28.2911 46.5128 22.3029C44.6042 16.3611 42.029 10.6545 38.8363 5.29215ZM31.7194 40.0572C22.8462 42.7847 13.966 39.5887 11.921 32.9358C9.87601 26.2829 15.4279 18.6508 24.3011 15.9233C33.1743 13.1959 42.0545 16.3918 44.0994 23.0447C46.1444 29.6976 40.5926 37.3297 31.7194 40.0572Z" fill="white"/>
</g>
<defs>
<clipPath id="clip0_0_143">
<rect width="56" height="56" fill="white"/>
</clipPath>
</defs>
</svg>

<svg xmlns="http://www.w3.org/2000/svg" width="56" height="56" fill="none"><g fill="#fff" clip-path="url(#a)"><path d="M28.073 25.33c-.85.268-1.734.41-2.625.423-1.382.049-2.75.302-4.058.751-2.884.887-2.653 2.826-2.229 4.207.013.04 1.478 3.948 6.868 2.292 2.73-.84 3.234-3.516 3.765-6.352.152-.808.306-1.625.515-2.407-.67.501-1.428.87-2.236 1.087ZM33.39 21.939c-1.186 1.05-1.558 2.978-1.942 5.025-.091.482-.185.975-.292 1.468a6.243 6.243 0 0 0 2.175-.316c2.785-.856 3.126-4.15 2.786-5.258-.226-.735-.487-1.56-2.727-.919ZM19.247 54.23h.004a1.683 1.683 0 0 1 1.785-.55l1.294.387a.841.841 0 0 0 .893-.275l.854-1.046a1.683 1.683 0 0 1 1.785-.549l1.295.386a.842.842 0 0 0 .892-.274l.855-1.047a1.683 1.683 0 0 1 1.785-.549l1.294.386a.842.842 0 0 0 .893-.274l.855-1.047a1.683 1.683 0 0 1 1.785-.548l1.294.386a.841.841 0 0 0 .893-.275l.855-1.046a1.683 1.683 0 0 1 1.785-.549l1.294.386a.842.842 0 0 0 .893-.274l.855-1.047a1.68 1.68 0 0 1 1.785-.549l1.294.386a.842.842 0 0 0 .893-.274l.854-1.047a1.683 1.683 0 0 1 1.785-.548.48.48 0 0 0 .599-.602l-.56-1.825-32.18 9.891.561 1.825a.48.48 0 0 0 .83.163ZM8.817 9.423 7.81 10.656a1.683 1.683 0 0 1-1.785.549.48.48 0 0 0-.6.6l.561 1.824 32.179-9.89-.561-1.825a.48.48 0 0 0-.83-.163 1.683 1.683 0 0 1-1.785.548l-1.53-.45a.478.478 0 0 0-.508.156l-1.007 1.233a1.683 1.683 0 0 1-1.785.549l-1.526-.455a.478.478 0 0 0-.509.156l-1.007 1.234a1.683 1.683 0 0 1-1.785.548l-1.526-.454a.478.478 0 0 0-.508.156L22.29 6.205a1.683 1.683 0 0 1-1.785.549l-1.526-.455a.478.478 0 0 0-.508.157l-1.008 1.233a1.683 1.683 0 0 1-1.785.549l-1.526-.455a.478.478 0 0 0-.508.156l-1.008 1.234a1.683 1.683 0 0 1-1.785.548l-1.525-.454a.478.478 0 0 0-.509.156Z"/><path d="M24.795 17.532c-7.988 2.456-13.039 9.141-11.266 14.91 1.773 5.767 9.707 8.462 17.695 6.006 7.988-2.455 13.039-9.14 11.266-14.909-1.773-5.768-9.707-8.462-17.695-6.007Zm9.03 12.193a7.58 7.58 0 0 1-3.104.355c-.636 2-1.745 3.776-4.198 4.53-5.913 1.818-8.521-1.94-8.971-3.405-.943-3.065.278-5.368 3.343-6.31a15.611 15.611 0 0 1 4.475-.822 7.897 7.897 0 0 0 2.208-.352 5.56 5.56 0 0 0 2.635-1.594 7.047 7.047 0 0 1 2.501-1.746c.998-.307 4.023-1.236 5.012 1.981.62 2.02-.152 6.21-3.9 7.363Z"/><path d="m38.836 5.292-32.532 10a82.831 82.831 0 0 0 3.204 18.386 82.675 82.675 0 0 0 7.676 17.01l32.532-10a82.831 82.831 0 0 0-3.203-18.385 82.674 82.674 0 0 0-7.677-17.01ZM31.72 40.057c-8.873 2.728-17.753-.468-19.798-7.121-2.045-6.653 3.507-14.285 12.38-17.013 8.873-2.727 17.753.469 19.798 7.122 2.045 6.653-3.506 14.285-12.38 17.012Z"/></g><defs><clipPath id="a"><path fill="#fff" d="M0 0h56v56H0z"/></clipPath></defs></svg>
